X: 93
T: POLKA: Nell Fee's (Dmaj)
T: John Brosnan's No. 2
C: C: Trad.; S: Timmy O'Connor
C: Set Leaders: Anton, Sophie, Tania
Z: Anton Zille ed.; slainte at The Session
N: https://thesession.org/members/26966/sets/92004
R: Polka
M: 2/4
L: 1/8
Q: 1/4=140
K: Dmaj
|:D2 DB|AF F>B|AF DE|FE EF|
D2 DB|AF F>B|AF EF|1 DA, B,C:|2 D2 D2||
|:d2 cd|BA FA|d2 cd|B2 Bc|
d2 cd|BA F>B|AF EF|D2 D2:||
|:d2 e2|f2 fe|dB Bc|d2 dA|
Bd/B/ AF|Bd/B/ AF|AF EF|1 DA Bc:|2 D2 DA,||

